resources/svg/stripe.svg

<svg xmlns="http://www.w3.org/2000/svg" viewBox="0 0 24 24" fill="currentColor"><path fill="currentColor" fill-rule="evenodd" d="M1,1 L23,1 L23,23 L1,23 L1,1 Z M11.1196337,9.18908425 C11.1196337,8.58622711 11.6142857,8.35435897 12.4335531,8.35435897 C13.6083516,8.35435897 15.0923077,8.70989011 16.2671062,9.343663 L16.2671062,5.71106227 C14.9841026,5.20095238 13.7165568,5 12.4335531,5 C9.2956044,5 7.20879121,6.6385348 7.20879121,9.37457875 C7.20879121,13.6409524 13.0827839,12.9608059 13.0827839,14.800293 C13.0827839,15.5113553 12.4644689,15.7432234 11.5988278,15.7432234 C10.3158242,15.7432234 8.67728938,15.2176557 7.37882784,14.5065934 L7.37882784,18.1855678 C8.81641026,18.8038828 10.2694505,19.0666667 11.5988278,19.0666667 C14.8140659,19.0666667 17.0245421,17.4745055 17.0245421,14.7075458 C17.0090842,10.1010989 11.1196337,10.9203663 11.1196337,9.18908425 L11.1196337,9.18908425 Z"/></svg>

<svg viewBox="0 0 24 24"><path fill="currentColor" fill-rule="evenodd" d="M1 1h22v22H1V1zm10.12 8.19c0-.604.494-.836 1.314-.836c1.174 0 2.658.356 3.833.99V5.71C14.984 5.201 13.717 5 12.434 5C9.296 5 7.209 6.639 7.209 9.375c0 4.266 5.874 3.586 5.874 5.425c0 .711-.619.943-1.484.943c-1.283 0-2.922-.525-4.22-1.236v3.679c1.437.618 2.89.88 4.22.88c3.215 0 5.426-1.591 5.426-4.358c-.016-4.607-5.905-3.788-5.905-5.519z"/></svg>
